img/delivery.svg

<svg width="136" height="164" viewBox="0 0 136 164" fill="none" xmlns="http://www.w3.org/2000/svg">
<g clip-path="url(#clip0)">
<path d="M93.1329 38.767C101.254 38.767 108.078 33.225 110.033 25.718L115.5 26.532C115.607 26.548 115.715 26.556 115.82 26.556C116.871 26.556 117.791 25.786 117.951 24.716C118.127 23.538 117.312 22.44 116.135 22.265L110.594 21.44C110.596 21.394 110.598 21.349 110.598 21.302C110.598 21.12 110.592 20.94 110.584 20.76C110.584 20.76 110.133 14.242 109.51 11.523C108.889 8.804 106.975 8.227 106.975 8.227C97.2049 6.015 87.2029 5.789 84.5999 5.789C81.9969 5.789 81.4419 7.121 81.4419 7.121L78.2919 12.117L78.2819 12.114C78.2059 12.236 78.136 12.359 78.063 12.482L78.0359 12.525C76.5339 15.105 75.6689 18.101 75.6689 21.302C75.6679 30.948 83.4879 38.767 93.1329 38.767Z" fill="white"/>
<path d="M131.535 78.076V78.074L104.793 75.906L95.5469 54.794C95.5469 54.794 95.0859 52.02 89.5389 46.318C83.9899 40.616 72.7399 42.928 72.7399 42.928C72.7399 42.928 48.8539 47.397 40.9949 49.246C33.1349 51.096 32.8269 59.109 32.8269 59.109L32.1949 63.628L17.0169 60.687C16.8259 60.65 16.6359 60.632 16.4489 60.632C15.0419 60.632 13.7779 61.632 13.5009 63.061L6.08995 101.303C5.77595 102.923 6.84395 104.505 8.46495 104.819L59.6609 114.742C59.7759 114.764 59.8909 114.766 60.0069 114.775H60.0089C59.2809 114.879 58.7179 114.74 58.7179 114.74L49.3179 112.891L46.2359 129.996L22.6759 150.359C20.9749 151.72 19.8839 153.812 19.8839 156.16C19.8839 160.264 23.2099 163.59 27.3129 163.59C29.3479 163.59 31.1909 162.772 32.5329 161.445C32.5329 161.445 60.2579 139.395 62.1079 137.854C63.9579 136.314 64.8809 134.001 64.8809 134.001C64.8809 134.001 69.422 120.053 70.66 117.127C71.5079 115.123 75.5919 116.048 75.5919 116.048L98.4769 124.679L106.092 153.741C106.174 154.371 106.334 154.975 106.565 155.545H106.567C107.665 158.273 110.337 160.199 113.456 160.199C117.56 160.199 120.886 156.872 120.886 152.769C120.886 152.17 120.814 151.59 120.679 151.033C119.837 146.068 116.075 123.987 115.118 119.207C114.04 113.813 110.497 112.273 110.497 112.273C110.497 112.273 89.229 100.715 87.8429 99.944C86.4559 99.174 86.7649 97.17 86.7649 97.17L90.6949 82.839L93.4679 88.695C93.4679 88.695 95.087 91.969 97.5519 92.086L130.909 92.906C135.013 92.906 138.339 89.58 138.339 85.475C138.338 81.586 135.346 78.396 131.535 78.076ZM60.1039 62.807L58.3149 68.687L68.2129 70.606L47.9989 66.689L48.5469 64.193L60.1039 62.807ZM57.8549 108.28L12.5509 99.499L18.8209 67.146L31.3629 69.577L29.7449 81.144L29.1049 85.55C29.0999 85.576 29.0969 85.606 29.0929 85.632L29.0749 85.759H29.0769C29.0369 86.071 29.0139 86.388 29.0139 86.71C29.0139 90.814 32.3409 94.139 36.4439 94.139C40.5469 94.139 43.8729 90.814 43.8729 86.71C43.8729 86.392 43.8519 86.08 43.8119 85.773L46.7129 72.55L64.1259 75.924L57.8549 108.28Z" fill="white"/>
<path d="M25.05 17.008H63.077C64.177 17.008 65.0771 16.112 65.0771 15.018C65.0771 13.924 64.177 13.028 63.077 13.028H25.05C23.95 13.028 23.05 13.924 23.05 15.018C23.05 16.112 23.95 17.008 25.05 17.008Z" fill="white"/>
<path d="M38.0798 23.025C36.9798 23.025 36.0798 23.921 36.0798 25.015C36.0798 26.109 36.9798 27.005 38.0798 27.005H61.0388C62.1388 27.005 63.0388 26.109 63.0388 25.015C63.0388 23.92 62.1388 23.025 61.0388 23.025H38.0798Z" fill="white"/>
<path d="M87.0981 32.732C95.2191 32.732 102.043 27.19 103.998 19.683L109.465 20.497C109.572 20.513 109.68 20.521 109.785 20.521C110.836 20.521 111.756 19.751 111.916 18.681C112.092 17.503 111.277 16.405 110.1 16.23L104.559 15.405C104.561 15.359 104.563 15.314 104.563 15.267C104.563 15.085 104.557 14.905 104.549 14.725C104.549 14.725 104.098 8.20703 103.475 5.48803C102.854 2.76903 100.94 2.19203 100.94 2.19203C91.1701 -0.0199716 81.1681 -0.245972 78.5641 -0.245972C75.9601 -0.245972 75.4061 1.08603 75.4061 1.08603L72.2561 6.08203L72.2461 6.07903C72.1701 6.20003 72.1001 6.32403 72.0271 6.44703L72.0001 6.49003C70.4981 9.07003 69.6331 12.066 69.6331 15.267C69.6331 24.913 77.4531 32.732 87.0981 32.732Z" fill="#3A3A3A"/>
<path d="M125.5 72.041V72.039L98.7579 69.871L89.5119 48.759C89.5119 48.759 89.0509 45.985 83.5039 40.283C77.9549 34.581 66.7049 36.893 66.7049 36.893C66.7049 36.893 42.8189 41.362 34.9599 43.21C27.0999 45.06 26.7919 53.073 26.7919 53.073L23.7099 75.109L23.0699 79.515C23.0649 79.541 23.0619 79.571 23.0579 79.597L23.0399 79.724H23.0419C23.0019 80.036 22.9789 80.353 22.9789 80.675C22.9789 84.779 26.3059 88.104 30.4089 88.104C34.5119 88.104 37.8379 84.779 37.8379 80.675C37.8379 80.357 37.8169 80.045 37.7769 79.738L42.5109 58.157L54.0679 56.771L52.2789 62.651L62.1769 64.57C63.7969 64.883 64.8649 66.466 64.5519 68.087L57.1399 106.33C56.8629 107.76 55.5989 108.76 54.1919 108.76C54.1199 108.76 54.0459 108.744 53.9719 108.739C53.2439 108.843 52.6809 108.704 52.6809 108.704L43.2809 106.855L40.1989 123.96L16.6389 144.323C14.9379 145.684 13.8469 147.776 13.8469 150.124C13.8469 154.228 17.1729 157.554 21.2759 157.554C23.3109 157.554 25.1539 156.736 26.4959 155.409C26.4959 155.409 54.2209 133.359 56.0709 131.818C57.9209 130.278 58.8439 127.965 58.8439 127.965C58.8439 127.965 63.3849 114.017 64.6229 111.091C65.4709 109.087 69.5549 110.012 69.5549 110.012L92.4399 118.643L100.055 147.705C100.137 148.335 100.297 148.939 100.528 149.509H100.53C101.628 152.237 104.3 154.163 107.419 154.163C111.523 154.163 114.849 150.836 114.849 146.733C114.849 146.134 114.777 145.554 114.642 144.997C113.8 140.032 110.038 117.951 109.081 113.171C108.003 107.777 104.46 106.237 104.46 106.237C104.46 106.237 83.1929 94.682 81.8069 93.91C80.4199 93.14 80.7289 91.136 80.7289 91.136L84.6589 76.805L87.4319 82.661C87.4319 82.661 89.0509 85.935 91.5159 86.052L124.873 86.872C128.977 86.872 132.303 83.546 132.303 79.441C132.303 75.551 129.311 72.36 125.5 72.041Z" fill="#3A3A3A"/>
<path d="M53.971 108.739H53.973C54.046 108.745 54.12 108.76 54.193 108.76C55.6 108.76 56.864 107.76 57.141 106.33L64.553 68.087C64.866 66.466 63.798 64.884 62.178 64.57L41.964 60.653L40.678 66.515L58.091 69.889L51.82 102.243L6.51603 93.464L12.786 61.111L25.328 63.542L26.16 57.592L10.982 54.65C10.791 54.613 10.601 54.595 10.414 54.595C9.00703 54.595 7.74303 55.595 7.46603 57.024L0.0550335 95.268C-0.258966 96.888 0.809034 98.47 2.43003 98.784L53.626 108.707C53.74 108.729 53.855 108.73 53.971 108.739Z" fill="#F0C42E"/>
<path d="M59.0419 8.982C59.0419 10.077 58.1419 10.972 57.0419 10.972H19.0149C17.9149 10.972 17.0149 10.076 17.0149 8.982C17.0149 7.888 17.9149 6.992 19.0149 6.992H57.0419C58.1419 6.993 59.0419 7.888 59.0419 8.982Z" fill="#F0C52E"/>
<path d="M57.0039 18.98C57.0039 20.074 56.1039 20.97 55.0039 20.97H32.0439C30.9439 20.97 30.0439 20.074 30.0439 18.98C30.0439 17.885 30.9439 16.99 32.0439 16.99H55.0029C56.1039 16.99 57.0039 17.886 57.0039 18.98Z" fill="#F0C52E"/>
</g>
<defs>
<clipPath id="clip0">
<rect width="136" height="164" fill="white"/>
</clipPath>
</defs>
</svg>

<svg xmlns="http://www.w3.org/2000/svg" width="136" height="164" viewBox="0 0 136 164"><g fill="#FFF"><path d="M93.133 38.767c8.121 0 14.945-5.542 16.9-13.049l5.467.814a2.159 2.159 0 0 0 2.451-1.816 2.157 2.157 0 0 0-1.816-2.451l-5.541-.825c.002-.046.004-.091.004-.138 0-.182-.006-.362-.014-.542 0 0-.451-6.518-1.074-9.237-.621-2.719-2.535-3.296-2.535-3.296-9.77-2.212-19.772-2.438-22.375-2.438s-3.158 1.332-3.158 1.332l-3.15 4.996-.01-.003c-.076.122-.146.245-.219.368l-.027.043a17.387 17.387 0 0 0-2.367 8.777c-.001 9.646 7.819 17.465 17.464 17.465zM131.535 78.076v-.002l-26.742-2.168-9.246-21.112s-.461-2.774-6.008-8.476c-5.549-5.702-16.799-3.39-16.799-3.39s-23.886 4.469-31.745 6.318c-7.86 1.85-8.168 9.863-8.168 9.863l-.632 4.519-15.178-2.941a3.012 3.012 0 0 0-3.516 2.374L6.09 101.303a3.008 3.008 0 0 0 2.375 3.516l51.196 9.923c.115.022.23.024.346.033h.002c-.728.104-1.291-.035-1.291-.035l-9.4-1.849-3.082 17.105-23.56 20.363a7.43 7.43 0 1 0 9.857 11.086s27.725-22.05 29.575-23.591c1.85-1.54 2.773-3.853 2.773-3.853s4.541-13.948 5.779-16.874c.848-2.004 4.932-1.079 4.932-1.079l22.885 8.631 7.615 29.062c.082.63.242 1.234.473 1.804h.002a7.428 7.428 0 0 0 14.112-4.512c-.842-4.965-4.604-27.046-5.561-31.826-1.078-5.394-4.621-6.934-4.621-6.934s-21.268-11.558-22.654-12.329c-1.387-.77-1.078-2.774-1.078-2.774l3.93-14.331 2.773 5.856s1.619 3.274 4.084 3.391l33.357.82a7.43 7.43 0 0 0 7.43-7.431 7.43 7.43 0 0 0-6.804-7.399zM60.104 62.807l-1.789 5.88 9.898 1.919-20.214-3.917.548-2.496 11.557-1.386zm-2.249 45.473l-45.304-8.781 6.27-32.353 12.542 2.431-1.618 11.567-.64 4.406c-.005.026-.008.056-.012.082l-.018.127h.002a7.43 7.43 0 0 0 7.367 8.38 7.428 7.428 0 0 0 7.368-8.366l2.901-13.223 17.413 3.374-6.271 32.356zM25.05 17.008h38.027c1.1 0 2-.896 2-1.99 0-1.094-.9-1.99-2-1.99H25.05c-1.1 0-2 .896-2 1.99 0 1.094.9 1.99 2 1.99zM38.08 23.025c-1.1 0-2 .896-2 1.99 0 1.094.9 1.99 2 1.99h22.959c1.1 0 2-.896 2-1.99a2 2 0 0 0-2-1.99H38.08z"/></g><path fill="#3A3A3A" d="M87.098 32.732c8.121 0 14.945-5.542 16.9-13.049l5.467.814a2.159 2.159 0 0 0 2.451-1.816 2.157 2.157 0 0 0-1.816-2.451l-5.541-.825c.002-.046.004-.091.004-.138 0-.182-.006-.362-.014-.542 0 0-.451-6.518-1.074-9.237-.621-2.719-2.535-3.296-2.535-3.296C91.17-.02 81.168-.246 78.564-.246s-3.158 1.332-3.158 1.332l-3.15 4.996-.01-.003c-.076.121-.146.245-.219.368L72 6.49a17.387 17.387 0 0 0-2.367 8.777c0 9.646 7.82 17.465 17.465 17.465zM125.5 72.041v-.002l-26.742-2.168-9.246-21.112s-.461-2.774-6.008-8.476c-5.549-5.702-16.799-3.39-16.799-3.39S42.819 41.362 34.96 43.21c-7.86 1.85-8.168 9.863-8.168 9.863L23.71 75.109l-.64 4.406c-.005.026-.008.056-.012.082l-.018.127h.002a7.43 7.43 0 0 0 7.367 8.38 7.428 7.428 0 0 0 7.368-8.366l4.734-21.581 11.557-1.386-1.789 5.88 9.898 1.919a3.01 3.01 0 0 1 2.375 3.517L57.14 106.33a3.012 3.012 0 0 1-2.948 2.43c-.072 0-.146-.016-.22-.021-.728.104-1.291-.035-1.291-.035l-9.4-1.849-3.082 17.105-23.56 20.363a7.43 7.43 0 1 0 9.857 11.086s27.725-22.05 29.575-23.591c1.85-1.54 2.773-3.853 2.773-3.853s4.541-13.948 5.779-16.874c.848-2.004 4.932-1.079 4.932-1.079l22.885 8.631 7.615 29.062c.082.63.242 1.234.473 1.804h.002a7.428 7.428 0 0 0 14.112-4.512c-.842-4.965-4.604-27.046-5.561-31.826-1.078-5.394-4.621-6.934-4.621-6.934S83.193 94.682 81.807 93.91c-1.387-.77-1.078-2.774-1.078-2.774l3.93-14.331 2.773 5.856s1.619 3.274 4.084 3.391l33.357.82a7.43 7.43 0 0 0 .627-14.831z"/><path fill="#F0C42E" d="M53.971 108.739h.002c.073.006.147.021.22.021 1.407 0 2.671-1 2.948-2.43l7.412-38.243a3.01 3.01 0 0 0-2.375-3.517l-20.214-3.917-1.286 5.862 17.413 3.374-6.271 32.354-45.304-8.779 6.27-32.353 12.542 2.431.832-5.95-15.178-2.942a3.012 3.012 0 0 0-3.516 2.374L.055 95.268a3.008 3.008 0 0 0 2.375 3.516l51.196 9.923c.114.022.229.023.345.032z"/><path fill="#F0C52E" d="M59.042 8.982a2 2 0 0 1-2 1.99H19.015c-1.1 0-2-.896-2-1.99 0-1.094.9-1.99 2-1.99h38.027c1.1.001 2 .896 2 1.99zM57.004 18.98c0 1.094-.9 1.99-2 1.99h-22.96c-1.1 0-2-.896-2-1.99a2 2 0 0 1 2-1.99h22.959c1.101 0 2.001.896 2.001 1.99z"/></svg>
